X:1
T:Title
%%score { ( 1 3 4 ) | ( 2 5 ) }
L:1/8
M:3/4
K:Ab
V:1 treble nm="Grand Piano"
V:3 treble 
V:4 treble 
V:2 bass 
V:5 bass 
V:1
 z2 z2[Q:1/4=92] EE | c4 z2 | c2 z2 z2 | c4 z2 | d4 z2 | B4 z2 | c2 z2 z2 | z =D z G Ac | %8
[M:7/8] B3 z z z2 |[M:3/4] c4 z2 | c2 z2 z2 | f4 z2 | e4 z2 | z E z B cd |[M:7/8] e2 z z z z2 | %15
[M:3/4] B4 z2 | [CA]4 z2 |[M:6/8] [CE]2 [CE] .[G,DE]2 [DG] | [EA]2 B c2 A | [Ee]2 [Ee] e=d[Ee] | %20
 [EG]2 [=DF] E3 | [Ec]2 [EB] .[A,EA]2 [Ec] | [Ed]2 [Ed] [Ec]2 [Ee] | %23
 [A,DF]2 [=A,EF] .[B,DF]2 [B,DA] |[M:9/16] [B,EA]->[B,EA][B,DG][A,CA]3/2 |] %25
V:2
 z6 | A,,[E,A,C] [E,A,C]2 [E,A,CE]2 | A,,[E,A,C] [E,A,CE]2 [E,A,C]2 | %3
 A,,[E,A,C] [E,A,C]2 [E,A,CE]2 | B,,[F,B,D] [F,B,D]2 [F,B,D]2 | G,,[G,D] [G,D]2 [G,DE]2 | %6
 A,,[E,A,C] [E,A,CE]2 [E,A,CE]2 | B,,[A,B,] [A,B,]2 [A,B,=D]2 |[M:7/8] E,,[E,DE] [E,DE]3 z2 | %9
[M:3/4] A,,[E,A,C] [E,A,C]2 [E,A,CE]2 | A,,[E,A,C] [E,A,CE]2 [E,A,CE]2 | %11
 =A,,[F,=A,] [F,A,]2 [F,A,E]2 | B,,[F,B,D] [F,B,D]2 [F,B,DF]2 | D,[G,B,] [G,B,]2 [G,B,E]2 | %14
[M:7/8] C,A, [F,CF]3 FE |[M:3/4] z A, A,2 [E,B,D]2 | [A,,A,]4 z2 | %17
[M:6/8] [A,,A,]2 [A,,A,] z F[B,,E,] | [C,E,]2 [E,G,E] [A,E]2 [A,C] | %19
 [C,A,]2 [C,A,] [_C,=A,]2 [C,A,] | [B,,B,]2 [B,,A,] [E,G,]3 | %21
 [D,G,]2 [D,G,] z[K:treble] B[K:bass][C,A,] | [B,,G,]2 [B,,G,] [A,,A,]2 [C,A,] | D,2 C, z GB,, | %24
[M:9/16] E,->E,E,A,,3/2 |] %25
V:3
 x6 | z E z c BA | z E c2 EE | z E z c BA | z F F2 FF | z E z B =AB | z E c2 AG | F4 z2 | %8
[M:7/8] z G G3 EE |[M:3/4] z E z c BA | z E c2 cc | z E z e dc | z F F2 dc | B4 z2 | %14
[M:7/8] z E A3 cc |[M:3/4] z =D z F GG | x6 |[M:6/8] x6 | x6 | z3 .E3 | x6 | x6 | x6 | x6 | %24
[M:9/16] x9/2 |] %25
V:4
 x6 | z2 E2 z2 | x6 | z2 E2 z2 | x6 | z2 E2 z2 | x6 | z2 =D2 z2 |[M:7/8] x7 |[M:3/4] z2 E2 z2 | %10
 x6 | z2 E2 z2 | x6 | z2 E2 z2 |[M:7/8] x7 |[M:3/4] z2 =D2 z2 | x6 |[M:6/8] x6 | x6 | x6 | x6 | %21
 x6 | x6 | x6 |[M:9/16] x9/2 |] %25
V:5
 x6 | x6 | x6 | x6 | x6 | x6 | x6 | x6 |[M:7/8] x7 |[M:3/4] x6 | x6 | x6 | x6 | x6 | %14
[M:7/8] z z z z2 [F,A,]2 |[M:3/4] B,,4 z2 | x6 |[M:6/8] z3 .B,,3 | x6 | x6 | x6 | %21
 z3 .C,3[K:treble][K:bass] | x6 | z3 .B,,3 |[M:9/16] x9/2 |] %25

